X:1
T: George I. Taylor
C:J. Murdoch Henderson
R:Strathspey
Q: 128
K:Gm
M:4/4
L:1/16
|:c2|Bd3 B3A G3A B3G|Af3 c3A F3A dcBA|B3d BG3 c3=B c3e|((3d2c2B2) ((3c2B2A2) BG3 G3c|
Bd3 B3A G3A B3G|Af3 =eg3 f3c AF3|B3d BG3 c3=B c3e|((3d2c2B2) ((3c2B2A2) BG3 G2:|
|:^f2|g4 dg3 b3a g3=e|f3a cf3 a3f cA3|g4 dg3 b3a g3f|((3d2c2B2) ((3c2B2A2) BG3 G3a|
g4 G3B ((3d2g2g2) ((3g2a2b2) |a4 F3A ((3c2f2f2) ((3f2g2a2) |G4 ((3B2c2d2) cA3 A3c|B3G BAG^F G4 G2:|
